%
(1020)
(T2  D=0.375 CR=0. TAPER=120DEG - ZMIN=0.55 - SPOT DRILL)
(T4  D=0.375 CR=0. - ZMIN=0.4 - FLAT END MILL)
(T8  D=0.4063 CR=0. TAPER=118DEG - ZMIN=-0.247 - DRILL)
N10 G90 G94 G17 G91.1
N15 G20
N20 G53 G0 Z0.
(DRILL1)
N25 T2 M6
N30 T8
N35 S1528 M3
N40 G54
N45 M8
N50 G0 X-1.9685 Y1.135
N55 G43 Z1.45 H2
N60 G0 Z1.05
N65 G98 G81 X-1.9685 Y1.135 Z0.55 R0.8 F13.333
N70 X1.9685
N75 G80
N80 G0 Z1.45
N85 M5
N90 G53 Z0.
(DRILL2)
N95 M9
N100 M1
N105 T8 M6
N110 T4
N115 S1128 M3
N120 G54
N125 M8
N130 G0 X-1.9685 Y1.135
N135 G43 Z1.45 H8
N140 G0 Z1.05
N145 G81 X-1.9685 Y1.135 Z-0.247 R0.8 F7.898
N150 X1.9685
N155 G80
N160 G0 Z1.45
N165 M5
N170 G53 Z0.
(2D CONTOUR1)
N175 M9
N180 M1
N185 T4 M6
N190 T2
N195 S5000 M3
N200 G54
N205 G64 P0.0004 Q0.0004
N210 M8
N215 G0 X1.9685 Y1.135
N220 G43 Z1.45 H4
N225 G1 Z0.8 F600.
N230 Z0.4 F40.
N235 G3 X1.9498 Y1.1538 I-0.0187 J0.
N240 G1 X1.7998
N245 G3 X1.781 Y1.135 I0. J-0.0187
N250 X2.156 I0.1875 J0.
N255 X1.781 I-0.1875 J0.
N260 X2.221 I0.22 J0.
N265 X1.716 I-0.2525 J0.
N270 X2.281 I0.2825 J0.
N275 X1.656 I-0.3125 J0.
N280 X2.281 I0.3125 J0.
N285 X2.2435 Y1.1725 I-0.0375 J0.
N290 G1 X2.206
N295 G18 G3 X2.1685 Z0.4375 I0. K0.0375
N300 G1 Z1.05 F600.
N305 X-1.9685 Y1.135
N310 Z0.8
N315 Z0.4 F40.
N320 G17 G3 X-1.9873 Y1.1538 I-0.0187 J0.
N325 G1 X-2.1373
N330 G3 X-2.156 Y1.135 I0. J-0.0187
N335 X-1.781 I0.1875 J0.
N340 X-2.156 I-0.1875 J0.
N345 X-1.716 I0.22 J0.
N350 X-2.221 I-0.2525 J0.
N355 X-1.656 I0.2825 J0.
N360 X-2.281 I-0.3125 J0.
N365 X-1.656 I0.3125 J0.
N370 X-1.6935 Y1.1725 I-0.0375 J0.
N375 G1 X-1.731
N380 G18 G3 X-1.7685 Z0.4375 I0. K0.0375
N385 G1 Z1.45 F600.
N390 G17
N395 M9
N400 G53 G0 Z0.
N405 M30
%
