%
(150154KEYWAY)
(T1  D=0.25 CR=0. - ZMIN=-0.174 - FLAT END MILL)
N10 G90 G94 G17 G91.1
N15 G20
N20 G53 G0 Z0.
(2D POCKET1)
N25 T1 M6
N30 S2750 M3
N35 G54
N40 G64 P0.004 Q0.004
N45 M8
N50 G0 X0.25 Y0.0068
N55 G43 Z0.6 H1
N60 G1 Z0.2 F299.
N65 Z-0.0625 F7.334
N70 X0.2497 Y0.0069 Z-0.066 F22.002
N75 X0.2489 Y0.007 Z-0.0695
N80 X0.2476 Y0.0072 Z-0.0727
N85 X0.2458 Y0.0075 Z-0.0757
N90 X0.2435 Y0.0079 Z-0.0784
N95 X0.2408 Y0.0083 Z-0.0807
N100 X0.2379 Y0.0088 Z-0.0825
N105 X0.2347 Y0.0093 Z-0.0839
N110 X0.2313 Y0.0098 Z-0.0847
N115 X0.2278 Y0.0104 Z-0.085
N120 X0.1247 Y0.0267
N125 X0.1208 Y0.027
N130 X-5.
N135 G3 Y-0.027 I0. J-0.027
N140 G1 X0.
N145 X0.1206
N150 X0.122 Y-0.0268
N155 X0.1234 Y-0.0262
N160 X0.1245 Y-0.0252
N165 X0.1252 Y-0.0239
N170 X0.1319 Y-0.0084
N175 X0.1325 Y-0.0073
N180 X0.1334 Y-0.0064
N185 X0.1345 Y-0.0057
N190 X0.1587 Y0.0049
N195 X0.1737 Y0.0152
N200 X0.1748 Y0.0162
N205 X0.1755 Y0.0176
N210 X0.1756 Y0.0191
N215 X0.1752 Y0.0206
N220 X0.1743 Y0.0218
N225 X0.1731 Y0.0227
N230 X0.1716 Y0.023
N235 X0.1677 Y0.0233 Z-0.0853
N240 X0.1639 Y0.0236 Z-0.0862
N245 X0.1603 Y0.0239 Z-0.0877
N250 X0.157 Y0.0242 Z-0.0898
N255 X0.154 Y0.0244 Z-0.0923
N260 X0.1515 Y0.0246 Z-0.0953
N265 X0.1494 Y0.0248 Z-0.0987
N270 X0.1479 Y0.0249 Z-0.1023
N275 X0.147 Y0.025 Z-0.1061
N280 X0.1467 Z-0.11
N285 Z-0.145
N290 X0.1464 Z-0.1489
N295 X0.1455 Y0.0251 Z-0.1527
N300 X0.144 Y0.0252 Z-0.1563
N305 X0.1419 Y0.0254 Z-0.1597
N310 X0.1394 Y0.0256 Z-0.1627
N315 X0.1364 Y0.0258 Z-0.1652
N320 X0.1331 Y0.0261 Z-0.1673
N325 X0.1295 Y0.0264 Z-0.1688
N330 X0.1257 Y0.0267 Z-0.1697
N335 X0.1218 Y0.027 Z-0.17
N340 X0.1208
N345 X-5.
N350 G3 Y-0.027 I0. J-0.027
N355 G1 X0.
N360 X0.1206
N365 X0.1245 Y-0.0267
N370 X0.2238 Y-0.011
N375 X0.2277 Y-0.0103 Z-0.1697
N380 X0.2315 Y-0.0097 Z-0.1688
N385 X0.235 Y-0.0092 Z-0.1673
N390 X0.2383 Y-0.0087 Z-0.1652
N395 X0.2413 Y-0.0082 Z-0.1627
N400 X0.2438 Y-0.0078 Z-0.1597
N405 X0.2458 Y-0.0075 Z-0.1563
N410 X0.2473 Y-0.0072 Z-0.1527
N415 X0.2482 Y-0.0071 Z-0.1489
N420 X0.2485 Y-0.007 Z-0.145
N425 Z0.6 F299.
N430 M9
(2D CONTOUR1)
N435 G64 P0.0004 Q0.0004
N440 G0 X0.0545 Y-0.045
N445 G1 Z0.6 F299.
N450 Z0.2
N455 Z0.0394 F7.334
N460 Z-0.149
N465 G19 G3 Y-0.02 Z-0.174 J0.025 K0. F22.002
N470 G1 Y0.005
N475 G17 G3 X0.0295 Y0.03 I-0.025 J0.
N480 G1 X-5.
N485 G3 Y-0.03 I0. J-0.03
N490 G1 X0.
N495 X0.0295
N500 G3 X0.0545 Y-0.005 I0. J0.025
N505 G1 Y0.02
N510 G19 G3 Y0.045 Z-0.149 J0. K0.025
N515 G1 Z0.2 F299.
N520 X0.049 Y-0.0425
N525 Z0.0394 F7.334
N530 Z-0.149
N535 G3 Y-0.0175 Z-0.174 J0.025 K0. F22.002
N540 G1 Y0.0075
N545 G17 G3 X0.024 Y0.0325 I-0.025 J0.
N550 G1 X-5.
N555 G3 Y-0.0325 I0. J-0.0325
N560 G1 X0.
N565 X0.024
N570 G3 X0.049 Y-0.0075 I0. J0.025
N575 G1 Y0.0175
N580 G19 G3 Y0.0425 Z-0.149 J0. K0.025
N585 G1 Z0.2 F299.
N590 Y-0.0425
N595 Z0.0394 F7.334
N600 Z-0.149
N605 G3 Y-0.0175 Z-0.174 J0.025 K0. F22.002
N610 G1 Y0.0075
N615 G17 G3 X0.024 Y0.0325 I-0.025 J0.
N620 G1 X-5.
N625 G3 Y-0.0325 I0. J-0.0325
N630 G1 X0.
N635 X0.024
N640 G3 X0.049 Y-0.0075 I0. J0.025
N645 G1 Y0.0175
N650 G19 G3 Y0.0425 Z-0.149 J0. K0.025
N655 G1 Z0.6 F299.
N660 G17
N665 G53 G0 Z0.
N670 M30
%
