%
(1001)
(T1  D=0.2813 CR=0. TAPER=118DEG - ZMIN=-0.9595 - DRILL)
(T2  D=0.375 CR=0. TAPER=120DEG - ZMIN=-0.06 - SPOT DRILL)
N10 G90 G94 G17 G91.1
N15 G20
N20 G53 G0 Z0.
(DRILL1)
N25 T2 M6
N30 T1
N35 S1222 M3
N40 G54
N45 M8
N50 G0 X-1.5 Y0.
N55 G43 Z0.6 H2
N60 G0 Z0.2
N65 G98 G81 X-1.5 Y0. Z-0.06 R0.2 F6.112
N70 X-2.
N75 X-2.5
N80 X-6.75
N85 G80
N90 G0 Z0.6
N95 M5
N100 G53 Z0.
(DRILL2)
N105 M9
N110 M1
N115 T1 M6
N120 T2
N125 S1358 M3
N130 G54
N135 M8
N140 G0 X-1.5 Y0.
N145 G43 Z0.6 H1
N150 G0 Z0.2
N155 G81 X-1.5 Y0. Z-0.9595 R0.2 F6.791
N160 X-2.
N165 X-2.5
N170 X-6.75
N175 G80
N180 G0 Z0.6
N185 M9
N190 G53 Z0.
g53 y13.375
N195 M30
%
