%
(0001)
(T2  D=0.375 CR=0. TAPER=120DEG - ZMIN=-0.075 - SPOT DRILL)
(T3  D=0.201 CR=0. TAPER=118DEG - ZMIN=-0.5548 - DRILL)
(T7  D=0.25 CR=0. - ZMIN=-0.4944 - RIGHT HAND TAP)
N10 G90 G94 G17 G91.1
N15 G20
N20 G53 G0 Z0.
(DRILL1)
N25 T2 M6
N30 T3
N35 S1528 M3
N40 G54
N45 M8
N50 G0 X0. Y0.
N55 G43 Z0.6 H2
N60 G0 Z0.2
N65 G98 G81 X0. Y0. Z-0.075 R0.2 F13.333
N70 G80
N75 G0 Z0.6
N80 M5
N85 G53 Z0.
(DRILL2)
N90 M9
N95 M1
N100 T3 M6
N105 T7
N110 S1900 M3
N115 G54
N120 M8
N125 G0 X0. Y0.
N130 G43 Z0.6 H3
N135 G0 Z0.2
N140 G81 X0. Y0. Z-0.5548 R0.2 F9.502
N145 G80
N150 G0 Z0.6
N155 M5
N160 G53 Z0.
(DRILL3)
N165 M9
N170 M1
N175 T7 M6
N180 T2
N185 S300 M3
N190 G54
N195 M8
N200 G0 X0. Y0.
N205 G43 Z0.6 H7
N210 G0 Z0.2
N215 G33.1 Z-0.4944 K0.05
N220 G0 Z0.2
N225 X0. Y0. Z0.6
N230 M9
N235 G53 Z0.
g53 y13.375
N240 M30
%
