%
(2011)
(T1  D=0.3437 CR=0. TAPER=118DEG - ZMIN=-0.4908 - DRILL)
(T2  D=0.375 CR=0. TAPER=120DEG - ZMIN=-0.05 - SPOT DRILL)
N10 G90 G94 G17 G91.1
N15 G20
N20 G53 G0 Z0.
(DRILL2 4)
N25 T2 M6
N30 T1
N35 S1528 M3
N40 G54
N45 M8
N50 G0 X2.382 Y0.
N55 G43 Z0.6 H2
N60 G0 Z0.2
N65 G98 G81 X2.382 Y0. Z-0.05 R0.2 F13.333
N70 X9.422
N75 X16.3125
N80 G80
N85 G0 Z0.6
N90 M5
N95 G53 Z0.
(DRILL1 4)
N100 M9
N105 M1
N110 T1 M6
N115 T2
N120 S889 M3
N125 G54
N130 M8
N135 G0 X2.382 Y0.
N140 G43 Z0.6 H1
N145 G0 Z0.2
N150 G81 X2.382 Y0. Z-0.4908 R0.2 F6.223
N155 X9.422
N160 X16.3125
N165 G80
N170 G0 Z0.6
N175 M9
N180 G53 Z0.
g53 y13.375
N185 M30
%
