%
(1001)
(T2  D=0.375 CR=0. TAPER=120DEG - ZMIN=-0.05 - SPOT DRILL)
(T7  D=0.2187 CR=0. TAPER=118DEG - ZMIN=-0.8782 - DRILL)
N10 G90 G94 G17 G91.1
N15 G20
N20 G53 G0 Z0.
(DRILL3)
N25 T2 M6
N30 T7
N35 S815 M3
N40 G54
N45 M8
N50 G0 X-0.5 Y0.
N55 G43 Z0.6 H2
N60 G0 Z0.2
N65 G98 G81 X-0.5 Y0. Z-0.05 R0.05 F4.074
N70 G80
N75 G0 Z0.6
N80 M5
N85 G53 Z0.
(DRILL2)
N90 M9
N95 M1
N100 T7 M6
N105 T2
N110 S524 M3
N115 G54
N120 M8
N125 G0 X-0.5 Y0.
N130 G43 Z0.6 H7
N135 G0 Z0.2
N140 G83 X-0.5 Y0. Z-0.8782 R0.05 Q0.1 F2.095
N145 G80
N150 G0 Z0.6
N155 M9
N160 G53 Z0.
g53. y13.375
N165 M30
%
