%
(1001)
(T6  D=0.5 CR=0. - ZMIN=0. - FLAT END MILL)
N10 G90 G94 G17 G91.1
N15 G20
N20 G53 G0 Z0.
(FACE2)
N25 T6 M6
N30 S2292 M3
N35 G54
N40 G64 P0.0004 Q0.0004
N45 M8
N50 G0 X0.325 Y-0.0937
N55 G43 Z1.6 H6
N60 G0 Z1.2
N65 G1 Z0.8 F47.639
N70 G18 G3 X0.275 Z0.75 I-0.05 K0. F22.918
N75 G1 X0.2504
N80 X-3.2504
N85 G3 X-3.3004 Z0.8 I0. K0.05
N90 G0 Z1.2
N95 X0.325
N100 G1 Z0.55 F47.639
N105 G3 X0.275 Z0.5 I-0.05 K0. F22.918
N110 G1 X0.2504
N115 X-3.2504
N120 G3 X-3.3004 Z0.55 I0. K0.05
N125 G0 Z1.2
N130 X0.325
N135 G1 Z0.3 F47.639
N140 G3 X0.275 Z0.25 I-0.05 K0. F22.918
N145 G1 X0.2504
N150 X-3.2504
N155 G3 X-3.3004 Z0.3 I0. K0.05
N160 G0 Z1.2
N165 X0.325
N170 G1 Z0.05 F47.639
N175 G3 X0.275 Z0. I-0.05 K0. F22.918
N180 G1 X0.2504
N185 X-3.2504
N190 G3 X-3.3004 Z0.05 I0. K0.05
N195 G0 Z1.6
N200 G17
N205 M9
N210 G53 G0 Z0.
g53 y13.375
N215 M30
%
