%
(HENDERSONIDLER)
(T1  D=0.4219 CR=0. TAPER=118DEG - ZMIN=-1.625 - DRILL)
(T2  D=0.375 CR=0. TAPER=120DEG - ZMIN=-0.05 - SPOT DRILL)
(T3  D=0.625 CR=0. TAPER=45DEG - ZMIN=-0.11 - CHAMFER MILL)
(T4  D=0.5 CR=0. - ZMIN=0. - FLAT END MILL)
(T5  D=0.5 CR=0. - ZMIN=-1.25 - RIGHT HAND TAP)
N10 G90 G94 G17 G91.1
N15 G20
N20 G53 G0 Z0.
(FACE2)
N25 T4 M6
N30 T2
N35 S2139 M3
N40 G54
N45 G64 P0.0004 Q0.0004
N50 M8
N55 G0 X1.0494 Y-0.9123
N60 G43 Z0.6 H4
N65 G1 Z0.2 F299.
N70 Z0.05 F5.704
N75 G18 G3 X0.9994 Z0. I-0.05 K0. F17.112
N80 G1 X-0.9994
N85 X-1.1949
N90 G17 G2 Y-0.578 I0. J0.1671
N95 G1 X1.1949
N100 X1.2504
N105 G3 Y-0.2437 I0. J0.1671
N110 G1 X-1.2504
N115 G2 Y0.0905 I0. J0.1671
N120 G1 X1.2504
N125 G3 Y0.4247 I0. J0.1671
N130 G1 X1.2348
N135 X-1.2348
N140 G2 Y0.759 I0. J0.1671
N145 G1 X-1.111
N150 X1.111
N155 G18 G2 X1.161 Z0.05 I0. K0.05
N160 G1 Z0.6 F299.
N165 G17
N170 M5
N175 G53 G0 Z0.
(DRILL1)
N180 M9
N185 M1
N190 T2 M6
N195 T1
N200 S1222 M3
N205 G54
N210 M8
N215 G0 X0. Y0.
N220 G43 Z0.6 H2
N225 G1 F299.
N230 Z0.2
N235 G98 G81 X0. Y0. Z-0.05 R0.2 F6.112
N240 G80
N245 G1 Z0.6 F299.
N250 M5
N255 G53 G0 Z0.
(DRILL2)
N260 M9
N265 M1
N270 T1 M6
N275 T3
N280 S724 M3
N285 G54
N290 M8
N295 G0 X0. Y0.
N300 G43 Z0.6 H1
N305 G1 F299.
N310 Z0.2
N315 G83 X0. Y0. Z-1.625 R0.2 Q0.1055 F1.811
N320 G80
N325 G1 Z0.6 F299.
N330 M5
N335 G53 G0 Z0.
(2D CONTOUR1)
N340 M9
N345 M1
N350 T3 M6
N355 T5
N360 S1711 M3
N365 G54
N370 G64 P0.0004 Q0.0004
N375 M8
N380 G0 X-0.0566 Y-0.0625
N385 G43 Z0.6 H3
N390 G1 Z0.2 F299.
N395 Z0.0394 F5.704
N400 Z-0.0475
N405 G18 G2 X0.0059 Z-0.11 I0.0625 K0. F17.112
N410 G1 X0.0684
N415 G17 G3 X0.1309 Y0. I0. J0.0625
N420 X-0.1309 I-0.1309 J0.
N425 X0.1309 I0.1309 J0.
N430 X0.0684 Y0.0625 I-0.0625 J0.
N435 G1 X0.0059
N440 G18 G3 X-0.0566 Z-0.0475 I0. K0.0625
N445 G1 Z0.6 F299.
N450 G17
(2D CONTOUR1 2)
N455 G0 X-1.2675 Y-0.0625
N460 G1 Z0.6 F299.
N465 Z0.2
N470 Z0.0394 F5.704
N475 Z-0.0275
N480 G18 G2 X-1.205 Z-0.09 I0.0625 K0. F17.112
N485 G1 X-1.1425
N490 G17 G3 X-1.08 Y0. I0. J0.0625
N495 G2 X1.08 I1.08 J0.
N500 X-1.08 I-1.08 J0.
N505 G3 X-1.1425 Y0.0625 I-0.0625 J0.
N510 G1 X-1.205
N515 G18 G3 X-1.2675 Z-0.0275 I0. K0.0625
N520 G1 Z0.6 F299.
N525 G17
N530 M5
N535 G53 G0 Z0.
(DRILL3)
N540 M9
N545 M1
N550 T5 M6
N555 T4
N560 S200 M3
N565 G54
N570 M8
N575 G0 X0. Y0.
N580 G43 Z0.6 H5
N585 G1 F299.
N590 Z0.2
N595 G0
N600 G33.1 Z-1.25 K0.0769
N605 G0 Z0.2
N610 G1 X0. Y0. Z0.6
N615 M9
N620 G53 G0 Z0.
N625 M30
%
